!!!COM: Richard Strauss
!!!CNT: Deutscher
!!!TXO: Deutsche 
!!!OTL: Sta2chen
!!!OPS: Opus 17
!!!ONM: No. 2
!!!LYR: A.F. von Schack
!!!ENC: Brian Bice
!!!YOR: Lieder, Complete Edition, vol. 1
!!!ODT: 1887
!!NB: Vocal melody and text only encoded.
**kern	**silbe
*clefG2	*
*k[f#c#g#d#a#e#]	*
*M6/8	*
=2	=2
4r	.
8r	.
4r	.
{8c#	{Mach'
=3	=3
[4.cc#	auf,
4cc#]	|
8c#	mach'
=4	=4
[4.cc#	auf,
4cc#]	|
8cc#	doch
=5	=5
[4.ff#	lei-
8ff#]	|
8a#	-se
8b	mein
=6	=6
[4.cc#	Kind
8cc#]}	|}
8r	.
{8ee#	{um
=7	=7
8gg#	Kein-
8ff#	-en
8cc#	vom
[4.a#	Schlum-
=8	=8
8a#]	|
8b	-mer
8cc#	zu
8cc#	weck-
8b}	-en.}
8r	.
=10	=10
4r	.
8r	.
4r	.
{8a#	{kaum
=11	=11
8g#	mur-
8a#	-melt
8b	der
[4.cc#	Bach,
=12	=12
4.cc#_	|
4cc#]	|
8a#	kaum
=13	=13
8g#	zit-
8a#	-tert
8b	im
[4.gg#	Wind
=14	=14
4gg#]}	|}
{8ff#	{ein
4.ee#	Blatt
=15	=15
8r	.
8dd#	an
8ee#	den
[4.ff#	Bu2-
=16	=16
8ff#]	|
8a#	-schen
8b#	und
8dd#	Heck-
8cc#}	-en.}
8r	.
=18	=18
4r	.
8r	.
4r	.
{8cc#	{Drum
=19	=19
*M9/8	*
[4.a#	lei-
8a#]	|
8g#	-se
8f#	mein
4ff#	Ma2d-
8cc#	-chen
=20	=20
4r	.
8a#	dass
4g#	nichts
8f#	sich
([4.ff#	regt,
=21	=21
4ff#]}	|}
{8a#)	{nur
8g#	lei-
8a#	-se
8b	die
[4.dd#	Hand
=22	=22
8dd#]	|
8d#	auf
8f#	die
8.e#	Klin-
16f#	-ke
8g#	ge-
4.f#}	-legt.}
=24	=24
*M6/8	*
4r	.
8r	.
4r	.
{8c#	{Mit
=25	=25
4.cc#	Trit-
8cc#	-ten,
8r	.
8c#	wie
=26	=26
4.cc#	Trit-
4cc#	-te
8cc#	der
=27	=27
[4.ff#	El-
8ff#]	|
(8a#}	-fen}
{8b)	{so
=28	=28
2.cc#	sacht,
=29	=29
(8ee#	um
8ff#)	u2-
16ff#	-ber
16cc#	die
[4.a#	Blu-
=30	=30
8a#]	|
8b	-men
8cc#	zu
8cc#	hu2-
8b}	-pfen.}
8r	.
=32	=32
4r	.
8r	.
4r	.
{8a#	{Flieg'
=33	=33
(8g#	leicht
8a#)	|
8b	hin-
[4.cc#	-aus
=34	=34
4.cc#_	|
8cc#]	|
8a#	in
8a#	die
=35	=35
(8g#	Mond-
8a#)	|
8b	-schein-
[4.cc#	-nacht
=36	=36
4cc#]}	|}
{8dd#	{zu
[4.gg#	mir
=37	=37
8gg#]	|
8ee#	in
8dd#	den
[4.ff#	Gar-
=38	=38
8ff#]	|
8a#	-ten
8b#	zu
8dd#	schlu2-
8cc#}	-pfen.}
8r	.
=40	=40
4r	.
8r	.
4r	.
{8cc#	{Rings
=41	=41
*M9/8	*
[4.a#	schlum-
8a#]	|
8g#	-mern
8f#	die
4ff#	Blu2-
8cc#	-then
=42	=42
4r	.
8a#	am
8a#	rie-
8g#	-seln-
8f#	-den
([4.ff#	Bach
=43	=43
4ff#]}	|}
{8a#)	{und
8g#	duf-
8a#	-ten
8b	im
[4.dd#	Schlaf,
=44	=44
8dd#]	|
8d#	nur
8f#	die
8.e#	Lie-
16f#	-be
8g#	ist
4.f#}	wach.}
=48	=48
*M6/8	*
4r	.
8r	.
4r	.
{8an	{Sitz'
=49	=49
2.an	nie-
=50	=50
4.dn}	-der,}
4r	.
8r	.
=51	=51
4r	.
8r	.
{4.an	{hier,
=52	=52
4.ddn	da2m-
4cc#	-merts
8cc#	ge-
=53	=53
[4.ccn	-heim-
4ccn]	|
8ddn	-niss-
=54	=54
[2.ccn	-voll
=55	=55
4ccn]}	|}
8r	.
{[4.ddn	{un-
=56	=56
4.ddn]	|
4een	-ter
8ff#	den
=57	=57
[2.ggn	Lin-
=58	=58
4.ggn]	|
4.cc#	-den
=59	=59
4.een	ba2u-
4ddn}	-men,}
8r	.
=60	=60
4r	.
8r	.
{4.ddn	{die
=61	=61
[4.cc#	Nach-
4cc#]	|
8ddn	-ti-
=62	=62
[2.cc#	-gall
=63	=63
4cc#]}	|}
8r	.
{4cc#	{uns
8cc#	zu
=64	=64
[4.gg#	Ha2up-
4gg#]	|
8b}	-ten}
=65	=65
4r	.
8r	.
{[4.a#	{soll
=66	=66
4a#]	|
8a#	von
4a#	un-
8a#	-s'ren
=67	=67
[2.dd#	Ku2s-
=68	=68
4.dd#]	|
4.dd#	-sen
=69	=69
4.dd#	tra2u-
4g#}	-men}
8r	.
=72	=72
{[4.cc#	{und
4cc#]	|
8cc#	die
=73	=73
2.dd#	Ro-
=74	=74
4dd#}	-se.}
8r	.
4r	.
8r	.
=76	=76
{4.cc#	{wenn
4dd#	sie
8ee#	am
=77	=77
([4.gg#	Mor-
8gg#]	|
8f#	-gen
8e#)	er-
=78	=78
2.dd#}	-wacht.}
=79	=79
{2.ff#	{hoch
=80	=80
2.b#	glu2hn
=81	=81
2.aa#	hoch
=82	=82
[2.ff#	glu2hn
=83	=83
4.ff#]}	|}
{4a#	{von
8b#	den
=84	=84
[2.dd#	Won-
=85	=85
4.dd#]	|
4.cc#	-ne-
=86	=86
4.b#	-schau-
4a#	-ern
8g#	der
=87	=87
*M9/8	*
2.f#}	Nacht.}
4r	.
8r	.
*-	*-
